src/components/Home/Features/assets/feature-secure.svg

<svg width="105" height="113" viewBox="0 0 105 113" fill="none" xmlns="http://www.w3.org/2000/svg">
<path d="M2 36.5625L47.1155 2L90.6467 36.5625" fill="white"/>
<path fill-rule="evenodd" clip-rule="evenodd" d="M46.0943 0.666377C46.7057 0.197959 47.5574 0.205341 48.1606 0.684288L91.6917 35.2468C92.4184 35.8238 92.5398 36.8805 91.9628 37.6072C91.3859 38.3338 90.3291 38.4552 89.6025 37.8783L47.0975 4.13048L3.02208 37.8962C2.28553 38.4604 1.23103 38.3208 0.666768 37.5842C0.10251 36.8477 0.242175 35.7932 0.978719 35.2289L46.0943 0.666377Z" fill="#010101"/>
<path d="M11.5742 29.759V84.6461H79.6311V28.3896" fill="white"/>
<path fill-rule="evenodd" clip-rule="evenodd" d="M79.6314 26.7097C80.5592 26.7097 81.3114 27.4618 81.3114 28.3897V84.6461C81.3114 85.5739 80.5592 86.3261 79.6314 86.3261H11.5745C10.6467 86.3261 9.89453 85.5739 9.89453 84.6461V29.759C9.89453 28.8311 10.6467 28.079 11.5745 28.079C12.5024 28.079 13.2545 28.8311 13.2545 29.759V82.9661H77.9514V28.3897C77.9514 27.4618 78.7036 26.7097 79.6314 26.7097Z" fill="#010101"/>
<path d="M58.8655 49.0513H33.7734V84.6533H58.8655V49.0513Z" fill="white"/>
<path fill-rule="evenodd" clip-rule="evenodd" d="M32.0938 49.0513C32.0938 48.1234 32.8459 47.3713 33.7737 47.3713H58.8658C59.7937 47.3713 60.5458 48.1234 60.5458 49.0513V84.6533C60.5458 85.5812 59.7937 86.3333 58.8658 86.3333H33.7737C32.8459 86.3333 32.0938 85.5812 32.0938 84.6533V49.0513ZM35.4537 50.7313V82.9733H57.1858V50.7313H35.4537Z" fill="#010101"/>
<path d="M74.486 111C90.3672 111 103.241 98.1257 103.241 82.2445C103.241 66.3632 90.3672 53.489 74.486 53.489C58.6048 53.489 45.7305 66.3632 45.7305 82.2445C45.7305 98.1257 58.6048 111 74.486 111Z" fill="#B69538"/>
<path fill-rule="evenodd" clip-rule="evenodd" d="M74.4863 55.169C59.5329 55.169 47.4108 67.2911 47.4108 82.2445C47.4108 97.1979 59.5329 109.32 74.4863 109.32C89.4397 109.32 101.562 97.1979 101.562 82.2445C101.562 67.2911 89.4397 55.169 74.4863 55.169ZM44.0508 82.2445C44.0508 65.4354 57.6772 51.809 74.4863 51.809C91.2954 51.809 104.922 65.4354 104.922 82.2445C104.922 99.0535 91.2954 112.68 74.4863 112.68C57.6772 112.68 44.0508 99.0535 44.0508 82.2445Z" fill="#010101"/>
<path d="M84.9639 77.3766H64.0156V95.8013H84.9639V77.3766Z" fill="white"/>
<path fill-rule="evenodd" clip-rule="evenodd" d="M62.3359 77.3766C62.3359 76.4488 63.0881 75.6966 64.0159 75.6966H84.9642C85.8921 75.6966 86.6442 76.4488 86.6442 77.3766V95.8013C86.6442 96.7292 85.8921 97.4813 84.9642 97.4813H64.0159C63.0881 97.4813 62.3359 96.7292 62.3359 95.8013V77.3766ZM65.6959 79.0566V94.1213H83.2842V79.0566H65.6959Z" fill="#010101"/>
<path d="M74.489 65.8199C76.1128 65.8199 77.6701 66.4649 78.8182 67.6131C79.9664 68.7613 80.6115 70.3186 80.6115 71.9424V77.3766H68.3594V71.9424C68.3594 71.1377 68.518 70.341 68.8261 69.5977C69.1342 68.8545 69.5859 68.1792 70.1551 67.6106C70.7244 67.042 71.4002 66.5911 72.1438 66.2839C72.8875 65.9766 73.6844 65.8189 74.489 65.8199Z" fill="white"/>
<path fill-rule="evenodd" clip-rule="evenodd" d="M74.4874 67.4999C73.9035 67.4992 73.3253 67.6136 72.7857 67.8366C72.2461 68.0595 71.7558 68.3866 71.3427 68.7992C70.9296 69.2118 70.6019 69.7018 70.3783 70.2411C70.1548 70.7804 70.0397 71.3585 70.0397 71.9424V75.6966H78.9318V71.9424C78.9318 70.7642 78.4637 69.6342 77.6306 68.8011C76.7975 67.9679 75.6675 67.4999 74.4893 67.4999C74.4887 67.4999 74.488 67.4999 74.4874 67.4999ZM74.4903 64.1399C76.5593 64.1402 78.5435 64.9622 80.0065 66.4252C81.4697 67.8884 82.2918 69.873 82.2918 71.9424V77.3766C82.2918 78.3044 81.5396 79.0566 80.6118 79.0566H68.3597C67.4318 79.0566 66.6797 78.3044 66.6797 77.3766V71.9424C66.6797 70.917 66.8818 69.9016 67.2745 68.9544C67.6672 68.0071 68.2427 67.1466 68.9682 66.422C69.6937 65.6973 70.5549 65.1228 71.5026 64.7312C72.45 64.3398 73.4652 64.1388 74.4903 64.1399Z" fill="#010101"/>
<path d="M71.5551 89.4566L72.6878 87.098C72.3278 86.7367 72.0849 86.2752 71.991 85.7738C71.897 85.2724 71.9564 84.7544 72.1613 84.2872C72.3661 83.8201 72.707 83.4255 73.1395 83.155C73.572 82.8844 74.0759 82.7505 74.5856 82.7706C75.0953 82.7907 75.5872 82.964 75.9969 83.2678C76.4067 83.5716 76.7154 83.9918 76.8828 84.4737C77.0502 84.9556 77.0685 85.4767 76.9353 85.9692C76.8022 86.4616 76.5236 86.9024 76.1362 87.2342L77.355 89.428C77.3927 89.503 77.4107 89.5865 77.4073 89.6704C77.4039 89.7544 77.379 89.8361 77.3353 89.9078C77.2915 89.9796 77.2303 90.039 77.1572 90.0804C77.0841 90.1219 77.0016 90.1441 76.9176 90.1449H72.0067C71.9253 90.1443 71.8453 90.1236 71.7738 90.0847C71.7022 90.0457 71.6414 89.9897 71.5967 89.9216C71.552 89.8536 71.5249 89.7755 71.5176 89.6944C71.5103 89.6133 71.5232 89.5316 71.5551 89.4566Z" fill="#010101"/>
</svg>

<svg width="105" height="113" fill="none" xmlns="http://www.w3.org/2000/svg"><path d="M2 36.563L47.115 2l43.532 34.563" fill="#fff"/><path fill-rule="evenodd" clip-rule="evenodd" d="M46.094.666a1.68 1.68 0 0 1 2.067.018l43.53 34.563a1.68 1.68 0 1 1-2.088 2.631L47.098 4.13 3.021 37.896A1.68 1.68 0 0 1 .98 35.23L46.094.666z" fill="#010101"/><path d="M11.574 29.759v54.887h68.057V28.39" fill="#fff"/><path fill-rule="evenodd" clip-rule="evenodd" d="M79.631 26.71c.928 0 1.68.752 1.68 1.68v56.256a1.68 1.68 0 0 1-1.68 1.68H11.575a1.68 1.68 0 0 1-1.68-1.68V29.76a1.68 1.68 0 1 1 3.36 0v53.207H77.95V28.39c0-.928.753-1.68 1.68-1.68z" fill="#010101"/><path d="M58.865 49.051H33.773v35.602h25.092V49.051z" fill="#fff"/><path fill-rule="evenodd" clip-rule="evenodd" d="M32.094 49.051c0-.928.752-1.68 1.68-1.68h25.092c.928 0 1.68.752 1.68 1.68v35.602a1.68 1.68 0 0 1-1.68 1.68H33.774a1.68 1.68 0 0 1-1.68-1.68V49.051zm3.36 1.68v32.242h21.732V50.731H35.454z" fill="#010101"/><path d="M74.486 111c15.881 0 28.755-12.874 28.755-28.755 0-15.882-12.874-28.756-28.755-28.756-15.881 0-28.756 12.874-28.756 28.756C45.73 98.124 58.605 111 74.487 111z" fill="#B69538"/><path fill-rule="evenodd" clip-rule="evenodd" d="M74.486 55.169c-14.953 0-27.075 12.122-27.075 27.076 0 14.953 12.122 27.075 27.075 27.075 14.954 0 27.076-12.122 27.076-27.075 0-14.954-12.122-27.076-27.076-27.076zM44.051 82.245c0-16.81 13.626-30.436 30.435-30.436 16.81 0 30.436 13.626 30.436 30.436 0 16.808-13.627 30.435-30.436 30.435-16.809 0-30.435-13.627-30.435-30.436z" fill="#010101"/><path d="M84.964 77.377H64.016V95.8h20.948V77.377z" fill="#fff"/><path fill-rule="evenodd" clip-rule="evenodd" d="M62.336 77.377c0-.928.752-1.68 1.68-1.68h20.948c.928 0 1.68.752 1.68 1.68V95.8a1.68 1.68 0 0 1-1.68 1.68H64.016a1.68 1.68 0 0 1-1.68-1.68V77.377zm3.36 1.68V94.12h17.588V79.057H65.696z" fill="#010101"/><path d="M74.489 65.82a6.122 6.122 0 0 1 6.123 6.122v5.435H68.359v-5.435a6.123 6.123 0 0 1 6.13-6.122z" fill="#fff"/><path fill-rule="evenodd" clip-rule="evenodd" d="M74.487 67.5a4.441 4.441 0 0 0-4.447 4.442v3.755h8.892v-3.755a4.443 4.443 0 0 0-4.443-4.442h-.002zm.003-3.36a7.803 7.803 0 0 1 7.802 7.802v5.435a1.68 1.68 0 0 1-1.68 1.68H68.36a1.68 1.68 0 0 1-1.68-1.68v-5.435a7.802 7.802 0 0 1 7.81-7.802z" fill="#010101"/><path d="M71.555 89.457l1.133-2.359a2.538 2.538 0 1 1 3.448.136l1.219 2.194a.495.495 0 0 1-.437.717h-4.911a.495.495 0 0 1-.452-.688z" fill="#010101"/></svg>
